Newaita-dark/apps/48/window-duplicate.svg

<svg height="48pt" viewBox="0 0 48 48" width="48pt" xmlns="http://www.w3.org/2000/svg" xmlns:xlink="http://www.w3.org/1999/xlink"><linearGradient id="a" gradientUnits="userSpaceOnUse" x1="23.81478" x2="23.81478" y1="42.0509015" y2="44.03546750005"><stop offset="0" stop-opacity=".27451"/><stop offset="1" stop-opacity="0"/></linearGradient><linearGradient id="b"><stop offset="0" stop-opacity=".313726"/><stop offset=".222222" stop-opacity=".27451"/><stop offset="1" stop-opacity="0"/></linearGradient><radialGradient id="c" cx="450.908936" cy="189.579361" gradientTransform="matrix(.00000026 -.117199 -.210958 -.00000015 80.180537 95.392996)" gradientUnits="userSpaceOnUse" r="21.166656" xlink:href="#b"/><radialGradient id="d" cx="450.908936" cy="189.579361" gradientTransform="matrix(-.00000026 .117199 .210958 .00000015 -32.550992 -11.291221)" gradientUnits="userSpaceOnUse" r="21.166656" xlink:href="#b"/><radialGradient id="e" cx="450.908936" cy="189.579361" gradientTransform="matrix(-.00000026 -.117199 .210958 -.00000015 -32.550992 95.392996)" gradientUnits="userSpaceOnUse" r="21.166656" xlink:href="#b"/><radialGradient id="f" cx="450.908936" cy="189.579361" gradientTransform="matrix(.00000026 .117199 -.210958 .00000015 80.180534 -11.291222)" gradientUnits="userSpaceOnUse" r="21.166656" xlink:href="#b"/><linearGradient id="g"><stop offset="0" stop-color="#bdbdbd"/><stop offset="1" stop-color="#e0e0e0"/></linearGradient><linearGradient id="h" gradientTransform="matrix(.113024 0 0 .326118 -8.78102 50.462022)" gradientUnits="userSpaceOnUse" x1="306.916656" x2="305.954559" xlink:href="#g" y1="-25.791676" y2="-135.329163"/><linearGradient id="i" gradientUnits="userSpaceOnUse" x1="349.25" x2="349.25" xlink:href="#g" y1="233.5" y2="11.25"/><linearGradient id="j"><stop offset="0" stop-color="#424242"/><stop offset="1" stop-color="#616161"/></linearGradient><linearGradient id="k" gradientTransform="matrix(4.556143 0 0 13.146184 -353.972656 2034.180176)" gradientUnits="userSpaceOnUse" x1="306.916656" x2="305.954559" xlink:href="#j" y1="-25.791676" y2="-135.329163"/><linearGradient id="l" gradientUnits="userSpaceOnUse" x1="1320" x2="1320" xlink:href="#j" y1="1695.118164" y2="855.118103"/><linearGradient id="m"><stop offset="0" stop-color="#66bb6a"/><stop offset="1" stop-color="#81c784"/></linearGradient><linearGradient id="n" gradientUnits="userSpaceOnUse" x1="333.37491775" x2="333.37491775" xlink:href="#m" y1="-121.04159691667" y2="-89.29164325"/><linearGradient id="o"><stop offset="0" stop-color="#ffd54f"/><stop offset="1" stop-color="#ffe082"/></linearGradient><linearGradient id="p" gradientUnits="userSpaceOnUse" x1="386.29151025" x2="386.29151025" xlink:href="#o" y1="-121.04167408333" y2="-89.29163575"/><linearGradient id="q"><stop offset="0" stop-color="#e57373"/><stop offset="1" stop-color="#ef9a9a"/></linearGradient><linearGradient id="r" gradientUnits="userSpaceOnUse" x1="439.208298" x2="439.208298" xlink:href="#q" y1="-121.041682" y2="-89.291686"/><linearGradient id="s" gradientUnits="userSpaceOnUse" x1="375.70842" x2="375.70842" xlink:href="#m" y1="32.416634" y2="53.583298"/><linearGradient id="t" gradientUnits="userSpaceOnUse" x1="412.750137" x2="412.750137" xlink:href="#o" y1="32.416603" y2="53.583267"/><linearGradient id="u" gradientUnits="userSpaceOnUse" x1="449.791565" x2="449.791565" xlink:href="#q" y1="32.41668" y2="53.583344"/><path d="m6.945312 42.050781h33.738282v1.984375h-33.738282zm0 0" fill="url(#a)"/><path d="m40.683594 42.050781h3.96875v-1.984375h-3.96875zm0 0" fill="url(#c)"/><path d="m6.945312 42.050781h-3.96875v1.984375h3.96875zm0 0" fill="url(#d)"/><path d="m6.945312 42.050781h-3.96875v-1.984375h3.96875zm0 0" fill="url(#e)"/><path d="m40.683594 42.050781h3.96875v1.984375h-3.96875zm0 0" fill="url(#f)"/><path d="m4.960938 6.328125h37.707031c1.097656 0 1.984375.890625 1.984375 1.984375v31.753906c0 1.097656-.886719 1.984375-1.984375 1.984375h-37.707031c-1.09375 0-1.984376-.886719-1.984376-1.984375v-31.753906c0-1.09375.890626-1.984375 1.984376-1.984375zm0 0" fill="url(#h)"/><path d="m2.976562 14.265625h41.675782v.992187h-41.675782zm0 0" fill="#0a0d0e" fill-opacity=".235294"/><path d="m211.646455 11.270059h243.435087c11.707215 0 21.164645 9.45743 21.164645 21.164645v179.899488c0 11.707215-9.45743 21.164645-21.164645 21.164645h-243.435087c-11.665552 0-21.164645-9.45743-21.164645-21.164645v-179.899488c0-11.707215 9.499093-21.164645 21.164645-21.164645zm0 0" fill="url(#i)" stroke="#212121" stroke-linecap="round" stroke-linejoin="round" stroke-width="3" transform="matrix(.093759 0 0 .093759 0 20.158175)"/><path d="m17.859375 27.167969h26.792969v.738281h-26.792969zm0 0" fill="#0a0d0e" fill-opacity=".235294"/><path d="m4.960938 42.070312c-1.097657 0-1.984376-.886718-1.984376-1.984374v-.515626c0 1.097657.886719 1.984376 1.984376 1.984376h37.707031c1.101562 0 1.984375-.886719 1.984375-1.984376v.515626c0 1.097656-.882813 1.984374-1.984375 1.984374zm0 0" fill-opacity=".235294"/><path d="m199.980913 255.093763c-44.247745 0-79.992365 35.74462-79.992365 79.992366v239.977096h1679.997137v-239.977096c0-44.247746-35.587155-79.992366-79.992365-79.992366zm0 0" fill="url(#k)" stroke="#212121" stroke-linecap="round" stroke-width="11.338583" transform="scale(.0248071)"/><path d="m4.960938 6.441406c-1.097657 0-1.984376.886719-1.984376 1.988282v.515624c0-1.101562.886719-1.984374 1.984376-1.984374h37.707031c1.101562 0 1.984375.882812 1.984375 1.984374v-.515624c0-1.101563-.882813-1.988282-1.984375-1.988282zm0 0" fill="#fff" fill-opacity=".392157"/><path d="m799.923653 855.193969c-44.247745 0-79.992365 35.587154-79.992365 79.992365v159.984731h1080.054397v-159.984731c0-44.405211-35.587155-79.992365-79.992365-79.992365zm0 0" fill="url(#l)" stroke="#212121" stroke-linecap="round" stroke-linejoin="round" stroke-width="11.338583" transform="scale(.0248071)"/><path d="m4.960938 6.1875c-1.175782 0-2.125.949219-2.125 2.125v31.753906c0 1.175782.949218 2.125 2.125 2.125h37.707031c1.175781 0 2.125-.949218 2.125-2.125v-31.753906c0-1.175781-.949219-2.125-2.125-2.125zm0 .28125h37.707031c1.023437 0 1.84375.820312 1.84375 1.84375v31.753906c0 1.023438-.820313 1.84375-1.84375 1.84375h-37.707031c-1.023438 0-1.84375-.820312-1.84375-1.84375v-31.753906c0-1.023438.820312-1.84375 1.84375-1.84375zm0 0" fill="#212121"/><g stroke="#212121" stroke-linecap="round" stroke-width="3"><path d="m333.38483-121.050638c8.749165 0 15.873484 7.124319 15.873484 15.873484 0 8.790827-7.124319 15.873484-15.873484 15.873484-8.790827 0-15.873484-7.082657-15.873484-15.873484 0-8.749165 7.082657-15.873484 15.873484-15.873484zm0 0" fill="url(#n)" transform="matrix(.093759 0 0 .093759 0 20.158175)"/><path d="m386.296444-121.050638c8.749164 0 15.873484 7.124319 15.873484 15.873484 0 8.790827-7.12432 15.873484-15.873484 15.873484-8.790827 0-15.873484-7.082657-15.873484-15.873484 0-8.749165 7.082657-15.873484 15.873484-15.873484zm0 0" fill="url(#p)" transform="matrix(.093759 0 0 .093759 0 20.158175)"/><path d="m439.208058-121.050638c8.749164 0 15.873484 7.124319 15.873484 15.873484 0 8.790827-7.12432 15.873484-15.873484 15.873484-8.749165 0-15.873484-7.082657-15.873484-15.873484 0-8.749165 7.124319-15.873484 15.873484-15.873484zm0 0" fill="url(#r)" transform="matrix(.093759 0 0 .093759 0 20.158175)"/><path d="m375.714121 32.434704c5.832776 0 10.582323 4.707884 10.582323 10.582323 0 5.832777-4.749547 10.582323-10.582323 10.582323s-10.582323-4.749546-10.582323-10.582323c0-5.874439 4.749547-10.582323 10.582323-10.582323zm0 0" fill="url(#s)" transform="matrix(.093759 0 0 .093759 0 20.158175)"/><path d="m412.752251 32.434704c5.832776 0 10.582323 4.707884 10.582323 10.582323 0 5.832777-4.749547 10.582323-10.582323 10.582323-5.832777 0-10.582323-4.749546-10.582323-10.582323 0-5.874439 4.749546-10.582323 10.582323-10.582323zm0 0" fill="url(#t)" transform="matrix(.093759 0 0 .093759 0 20.158175)"/><path d="m449.79038 32.434704c5.832777 0 10.582323 4.707884 10.582323 10.582323 0 5.832777-4.749546 10.582323-10.582323 10.582323-5.832776 0-10.582322-4.749546-10.582322-10.582323 0-5.874439 4.749546-10.582323 10.582322-10.582323zm0 0" fill="url(#u)" transform="matrix(.093759 0 0 .093759 0 20.158175)"/></g></svg>

<?xml version="1.0" encoding="UTF-8"?>
<svg xmlns="http://www.w3.org/2000/svg" xmlns:xlink="http://www.w3.org/1999/xlink" width="48pt" height="48pt" viewBox="0 0 48 48" version="1.1">
<defs>
<linearGradient id="linear0" gradientUnits="userSpaceOnUse" x1="254" y1="233.5" x2="254" y2="254.666672" gradientTransform="matrix(0.093759,0,0,0.093759,-0.00000572259,20.158175)">
<stop offset="0" style="stop-color:rgb(0%,0%,0%);stop-opacity:0.27451;"/>
<stop offset="1" style="stop-color:rgb(0%,0%,0%);stop-opacity:0;"/>
</linearGradient>
<radialGradient id="radial0" gradientUnits="userSpaceOnUse" cx="450.908936" cy="189.579361" fx="450.908936" fy="189.579361" r="21.166656" gradientTransform="matrix(0.000000261256,-0.117199,-0.210958,-0.000000152308,80.180537,95.392996)">
<stop offset="0" style="stop-color:rgb(0%,0%,0%);stop-opacity:0.313726;"/>
<stop offset="0.222222" style="stop-color:rgb(0%,0%,0%);stop-opacity:0.27451;"/>
<stop offset="1" style="stop-color:rgb(0%,0%,0%);stop-opacity:0;"/>
</radialGradient>
<radialGradient id="radial1" gradientUnits="userSpaceOnUse" cx="450.908936" cy="189.579361" fx="450.908936" fy="189.579361" r="21.166656" gradientTransform="matrix(-0.000000261256,0.117199,0.210958,0.000000152308,-32.550992,-11.291221)">
<stop offset="0" style="stop-color:rgb(0%,0%,0%);stop-opacity:0.313726;"/>
<stop offset="0.222222" style="stop-color:rgb(0%,0%,0%);stop-opacity:0.27451;"/>
<stop offset="1" style="stop-color:rgb(0%,0%,0%);stop-opacity:0;"/>
</radialGradient>
<radialGradient id="radial2" gradientUnits="userSpaceOnUse" cx="450.908936" cy="189.579361" fx="450.908936" fy="189.579361" r="21.166656" gradientTransform="matrix(-0.000000261256,-0.117199,0.210958,-0.000000152308,-32.550992,95.392996)">
<stop offset="0" style="stop-color:rgb(0%,0%,0%);stop-opacity:0.313726;"/>
<stop offset="0.222222" style="stop-color:rgb(0%,0%,0%);stop-opacity:0.27451;"/>
<stop offset="1" style="stop-color:rgb(0%,0%,0%);stop-opacity:0;"/>
</radialGradient>
<radialGradient id="radial3" gradientUnits="userSpaceOnUse" cx="450.908936" cy="189.579361" fx="450.908936" fy="189.579361" r="21.166656" gradientTransform="matrix(0.000000261256,0.117199,-0.210958,0.000000152308,80.180534,-11.291222)">
<stop offset="0" style="stop-color:rgb(0%,0%,0%);stop-opacity:0.313726;"/>
<stop offset="0.222222" style="stop-color:rgb(0%,0%,0%);stop-opacity:0.27451;"/>
<stop offset="1" style="stop-color:rgb(0%,0%,0%);stop-opacity:0;"/>
</radialGradient>
<linearGradient id="linear1" gradientUnits="userSpaceOnUse" x1="306.916656" y1="-25.791676" x2="305.954559" y2="-135.329163" gradientTransform="matrix(0.113024,0,0,0.326118,-8.78102,50.462022)">
<stop offset="0" style="stop-color:rgb(74.117649%,74.117649%,74.117649%);stop-opacity:1;"/>
<stop offset="1" style="stop-color:rgb(87.843138%,87.843138%,87.843138%);stop-opacity:1;"/>
</linearGradient>
<linearGradient id="linear2" gradientUnits="userSpaceOnUse" x1="349.25" y1="233.5" x2="349.25" y2="11.25" gradientTransform="matrix(1,0,0,1,0,0)">
<stop offset="0" style="stop-color:rgb(74.117649%,74.117649%,74.117649%);stop-opacity:1;"/>
<stop offset="1" style="stop-color:rgb(87.843138%,87.843138%,87.843138%);stop-opacity:1;"/>
</linearGradient>
<linearGradient id="linear3" gradientUnits="userSpaceOnUse" x1="306.916656" y1="-25.791676" x2="305.954559" y2="-135.329163" gradientTransform="matrix(4.556143,0,0,13.146184,-353.972656,2034.180176)">
<stop offset="0" style="stop-color:rgb(25.882354%,25.882354%,25.882354%);stop-opacity:1;"/>
<stop offset="1" style="stop-color:rgb(38.039216%,38.039216%,38.039216%);stop-opacity:1;"/>
</linearGradient>
<linearGradient id="linear4" gradientUnits="userSpaceOnUse" x1="1320" y1="1695.118164" x2="1320" y2="855.118103" gradientTransform="matrix(1,0,0,1,0,-0)">
<stop offset="0" style="stop-color:rgb(25.882354%,25.882354%,25.882354%);stop-opacity:1;"/>
<stop offset="1" style="stop-color:rgb(38.039216%,38.039216%,38.039216%);stop-opacity:1;"/>
</linearGradient>
<linearGradient id="linear5" gradientUnits="userSpaceOnUse" x1="349.25" y1="-158.083328" x2="349.25" y2="-115.75" gradientTransform="matrix(0.749999,0,0,0.749999,71.437767,-2.479259)">
<stop offset="0" style="stop-color:rgb(40.000001%,73.333335%,41.568628%);stop-opacity:1;"/>
<stop offset="1" style="stop-color:rgb(50.588238%,78.039217%,51.764709%);stop-opacity:1;"/>
</linearGradient>
<linearGradient id="linear6" gradientUnits="userSpaceOnUse" x1="349.25" y1="-158.083328" x2="349.25" y2="-115.75" gradientTransform="matrix(0.750001,0,0,0.750001,124.353661,-2.47902)">
<stop offset="0" style="stop-color:rgb(100%,83.529413%,30.980393%);stop-opacity:1;"/>
<stop offset="1" style="stop-color:rgb(100%,87.843138%,50.980395%);stop-opacity:1;"/>
</linearGradient>
<linearGradient id="linear7" gradientUnits="userSpaceOnUse" x1="349.25" y1="-158.083328" x2="349.25" y2="-115.75" gradientTransform="matrix(0.75,0,0,0.75,177.270798,-2.479186)">
<stop offset="0" style="stop-color:rgb(89.803922%,45.09804%,45.09804%);stop-opacity:1;"/>
<stop offset="1" style="stop-color:rgb(93.725491%,60.392159%,60.392159%);stop-opacity:1;"/>
</linearGradient>
<linearGradient id="linear8" gradientUnits="userSpaceOnUse" x1="349.25" y1="-158.083328" x2="349.25" y2="-115.75" gradientTransform="matrix(0.5,0,0,0.5,201.08342,111.458298)">
<stop offset="0" style="stop-color:rgb(40.000001%,73.333335%,41.568628%);stop-opacity:1;"/>
<stop offset="1" style="stop-color:rgb(50.588238%,78.039217%,51.764709%);stop-opacity:1;"/>
</linearGradient>
<linearGradient id="linear9" gradientUnits="userSpaceOnUse" x1="349.25" y1="-158.083328" x2="349.25" y2="-115.75" gradientTransform="matrix(0.5,0,0,0.5,238.125137,111.458267)">
<stop offset="0" style="stop-color:rgb(100%,83.529413%,30.980393%);stop-opacity:1;"/>
<stop offset="1" style="stop-color:rgb(100%,87.843138%,50.980395%);stop-opacity:1;"/>
</linearGradient>
<linearGradient id="linear10" gradientUnits="userSpaceOnUse" x1="349.25" y1="-158.083328" x2="349.25" y2="-115.75" gradientTransform="matrix(0.5,0,0,0.5,275.166565,111.458344)">
<stop offset="0" style="stop-color:rgb(89.803922%,45.09804%,45.09804%);stop-opacity:1;"/>
<stop offset="1" style="stop-color:rgb(93.725491%,60.392159%,60.392159%);stop-opacity:1;"/>
</linearGradient>
</defs>
<g id="surface1">
<path style=" stroke:none;fill-rule:nonzero;fill:url(#linear0);" d="M 6.945312 42.050781 L 40.683594 42.050781 L 40.683594 44.035156 L 6.945312 44.035156 Z M 6.945312 42.050781 "/>
<path style=" stroke:none;fill-rule:nonzero;fill:url(#radial0);" d="M 40.683594 42.050781 L 44.652344 42.050781 L 44.652344 40.066406 L 40.683594 40.066406 Z M 40.683594 42.050781 "/>
<path style=" stroke:none;fill-rule:nonzero;fill:url(#radial1);" d="M 6.945312 42.050781 L 2.976562 42.050781 L 2.976562 44.035156 L 6.945312 44.035156 Z M 6.945312 42.050781 "/>
<path style=" stroke:none;fill-rule:nonzero;fill:url(#radial2);" d="M 6.945312 42.050781 L 2.976562 42.050781 L 2.976562 40.066406 L 6.945312 40.066406 Z M 6.945312 42.050781 "/>
<path style=" stroke:none;fill-rule:nonzero;fill:url(#radial3);" d="M 40.683594 42.050781 L 44.652344 42.050781 L 44.652344 44.035156 L 40.683594 44.035156 Z M 40.683594 42.050781 "/>
<path style=" stroke:none;fill-rule:nonzero;fill:url(#linear1);" d="M 4.960938 6.328125 L 42.667969 6.328125 C 43.765625 6.328125 44.652344 7.21875 44.652344 8.3125 L 44.652344 40.066406 C 44.652344 41.164062 43.765625 42.050781 42.667969 42.050781 L 4.960938 42.050781 C 3.867188 42.050781 2.976562 41.164062 2.976562 40.066406 L 2.976562 8.3125 C 2.976562 7.21875 3.867188 6.328125 4.960938 6.328125 Z M 4.960938 6.328125 "/>
<path style=" stroke:none;fill-rule:nonzero;fill:rgb(3.921569%,5.098039%,5.490196%);fill-opacity:0.235294;" d="M 2.976562 14.265625 L 44.652344 14.265625 L 44.652344 15.257812 L 2.976562 15.257812 Z M 2.976562 14.265625 "/>
<path style="fill-rule:nonzero;fill:url(#linear2);stroke-width:3;stroke-linecap:round;stroke-linejoin:round;stroke:rgb(12.941177%,12.941177%,12.941177%);stroke-opacity:1;stroke-miterlimit:4;" d="M 211.646455 11.270059 L 455.081542 11.270059 C 466.788757 11.270059 476.246187 20.727489 476.246187 32.434704 L 476.246187 212.334192 C 476.246187 224.041407 466.788757 233.498837 455.081542 233.498837 L 211.646455 233.498837 C 199.980903 233.498837 190.48181 224.041407 190.48181 212.334192 L 190.48181 32.434704 C 190.48181 20.727489 199.980903 11.270059 211.646455 11.270059 Z M 211.646455 11.270059 " transform="matrix(0.093759,0,0,0.093759,0,20.158175)"/>
<path style=" stroke:none;fill-rule:nonzero;fill:rgb(3.921569%,5.098039%,5.490196%);fill-opacity:0.235294;" d="M 17.859375 27.167969 L 44.652344 27.167969 L 44.652344 27.90625 L 17.859375 27.90625 Z M 17.859375 27.167969 "/>
<path style=" stroke:none;fill-rule:nonzero;fill:rgb(0%,0%,0%);fill-opacity:0.235294;" d="M 4.960938 42.070312 C 3.863281 42.070312 2.976562 41.183594 2.976562 40.085938 L 2.976562 39.570312 C 2.976562 40.667969 3.863281 41.554688 4.960938 41.554688 L 42.667969 41.554688 C 43.769531 41.554688 44.652344 40.667969 44.652344 39.570312 L 44.652344 40.085938 C 44.652344 41.183594 43.769531 42.070312 42.667969 42.070312 Z M 4.960938 42.070312 "/>
<path style="fill-rule:nonzero;fill:url(#linear3);stroke-width:11.338583;stroke-linecap:round;stroke-linejoin:miter;stroke:rgb(12.941177%,12.941177%,12.941177%);stroke-opacity:1;stroke-miterlimit:4;" d="M 199.980913 255.093763 C 155.733168 255.093763 119.988548 290.838383 119.988548 335.086129 L 119.988548 575.063225 L 1799.985685 575.063225 L 1799.985685 335.086129 C 1799.985685 290.838383 1764.39853 255.093763 1719.99332 255.093763 Z M 199.980913 255.093763 " transform="matrix(0.0248071,0,0,0.0248071,0,0)"/>
<path style=" stroke:none;fill-rule:nonzero;fill:rgb(100%,100%,100%);fill-opacity:0.392157;" d="M 4.960938 6.441406 C 3.863281 6.441406 2.976562 7.328125 2.976562 8.429688 L 2.976562 8.945312 C 2.976562 7.84375 3.863281 6.960938 4.960938 6.960938 L 42.667969 6.960938 C 43.769531 6.960938 44.652344 7.84375 44.652344 8.945312 L 44.652344 8.429688 C 44.652344 7.328125 43.769531 6.441406 42.667969 6.441406 Z M 4.960938 6.441406 "/>
<path style="fill-rule:nonzero;fill:url(#linear4);stroke-width:11.338583;stroke-linecap:round;stroke-linejoin:round;stroke:rgb(12.941177%,12.941177%,12.941177%);stroke-opacity:1;stroke-miterlimit:4;" d="M 799.923653 855.193969 C 755.675908 855.193969 719.931288 890.781123 719.931288 935.186334 L 719.931288 1095.171065 L 1799.985685 1095.171065 L 1799.985685 935.186334 C 1799.985685 890.781123 1764.39853 855.193969 1719.99332 855.193969 Z M 799.923653 855.193969 " transform="matrix(0.0248071,0,0,0.0248071,0,0)"/>
<path style=" stroke:none;fill-rule:nonzero;fill:rgb(12.941177%,12.941177%,12.941177%);fill-opacity:1;" d="M 4.960938 6.1875 C 3.785156 6.1875 2.835938 7.136719 2.835938 8.3125 L 2.835938 40.066406 C 2.835938 41.242188 3.785156 42.191406 4.960938 42.191406 L 42.667969 42.191406 C 43.84375 42.191406 44.792969 41.242188 44.792969 40.066406 L 44.792969 8.3125 C 44.792969 7.136719 43.84375 6.1875 42.667969 6.1875 Z M 4.960938 6.46875 L 42.667969 6.46875 C 43.691406 6.46875 44.511719 7.289062 44.511719 8.3125 L 44.511719 40.066406 C 44.511719 41.089844 43.691406 41.910156 42.667969 41.910156 L 4.960938 41.910156 C 3.9375 41.910156 3.117188 41.089844 3.117188 40.066406 L 3.117188 8.3125 C 3.117188 7.289062 3.9375 6.46875 4.960938 6.46875 Z M 4.960938 6.46875 "/>
<path style="fill-rule:nonzero;fill:url(#linear5);stroke-width:3;stroke-linecap:round;stroke-linejoin:miter;stroke:rgb(12.941177%,12.941177%,12.941177%);stroke-opacity:1;stroke-miterlimit:4;" d="M 333.38483 -121.050638 C 342.133995 -121.050638 349.258314 -113.926319 349.258314 -105.177154 C 349.258314 -96.386327 342.133995 -89.30367 333.38483 -89.30367 C 324.594003 -89.30367 317.511346 -96.386327 317.511346 -105.177154 C 317.511346 -113.926319 324.594003 -121.050638 333.38483 -121.050638 Z M 333.38483 -121.050638 " transform="matrix(0.093759,0,0,0.093759,0,20.158175)"/>
<path style="fill-rule:nonzero;fill:url(#linear6);stroke-width:3;stroke-linecap:round;stroke-linejoin:miter;stroke:rgb(12.941177%,12.941177%,12.941177%);stroke-opacity:1;stroke-miterlimit:4;" d="M 386.296444 -121.050638 C 395.045608 -121.050638 402.169928 -113.926319 402.169928 -105.177154 C 402.169928 -96.386327 395.045608 -89.30367 386.296444 -89.30367 C 377.505617 -89.30367 370.42296 -96.386327 370.42296 -105.177154 C 370.42296 -113.926319 377.505617 -121.050638 386.296444 -121.050638 Z M 386.296444 -121.050638 " transform="matrix(0.093759,0,0,0.093759,0,20.158175)"/>
<path style="fill-rule:nonzero;fill:url(#linear7);stroke-width:3;stroke-linecap:round;stroke-linejoin:miter;stroke:rgb(12.941177%,12.941177%,12.941177%);stroke-opacity:1;stroke-miterlimit:4;" d="M 439.208058 -121.050638 C 447.957222 -121.050638 455.081542 -113.926319 455.081542 -105.177154 C 455.081542 -96.386327 447.957222 -89.30367 439.208058 -89.30367 C 430.458893 -89.30367 423.334574 -96.386327 423.334574 -105.177154 C 423.334574 -113.926319 430.458893 -121.050638 439.208058 -121.050638 Z M 439.208058 -121.050638 " transform="matrix(0.093759,0,0,0.093759,0,20.158175)"/>
<path style="fill-rule:nonzero;fill:url(#linear8);stroke-width:3;stroke-linecap:round;stroke-linejoin:miter;stroke:rgb(12.941177%,12.941177%,12.941177%);stroke-opacity:1;stroke-miterlimit:4;" d="M 375.714121 32.434704 C 381.546897 32.434704 386.296444 37.142588 386.296444 43.017027 C 386.296444 48.849804 381.546897 53.59935 375.714121 53.59935 C 369.881345 53.59935 365.131798 48.849804 365.131798 43.017027 C 365.131798 37.142588 369.881345 32.434704 375.714121 32.434704 Z M 375.714121 32.434704 " transform="matrix(0.093759,0,0,0.093759,0,20.158175)"/>
<path style="fill-rule:nonzero;fill:url(#linear9);stroke-width:3;stroke-linecap:round;stroke-linejoin:miter;stroke:rgb(12.941177%,12.941177%,12.941177%);stroke-opacity:1;stroke-miterlimit:4;" d="M 412.752251 32.434704 C 418.585027 32.434704 423.334574 37.142588 423.334574 43.017027 C 423.334574 48.849804 418.585027 53.59935 412.752251 53.59935 C 406.919474 53.59935 402.169928 48.849804 402.169928 43.017027 C 402.169928 37.142588 406.919474 32.434704 412.752251 32.434704 Z M 412.752251 32.434704 " transform="matrix(0.093759,0,0,0.093759,0,20.158175)"/>
<path style="fill-rule:nonzero;fill:url(#linear10);stroke-width:3;stroke-linecap:round;stroke-linejoin:miter;stroke:rgb(12.941177%,12.941177%,12.941177%);stroke-opacity:1;stroke-miterlimit:4;" d="M 449.79038 32.434704 C 455.623157 32.434704 460.372703 37.142588 460.372703 43.017027 C 460.372703 48.849804 455.623157 53.59935 449.79038 53.59935 C 443.957604 53.59935 439.208058 48.849804 439.208058 43.017027 C 439.208058 37.142588 443.957604 32.434704 449.79038 32.434704 Z M 449.79038 32.434704 " transform="matrix(0.093759,0,0,0.093759,0,20.158175)"/>
</g>
</svg>
